digitransit-component/packages/digitransit-component-icon/src/assets/citybike-waltti.svg

<svg width="24" height="24" viewBox="0 0 24 24" fill="none" xmlns="http://www.w3.org/2000/svg">
<path d="M4.68144 18.0093C3.21465 17.4199 2.50256 15.7521 3.0937 14.2853C3.52982 13.2001 4.58092 12.4897 5.74958 12.4897C6.16185 12.4897 6.569 12.5783 6.94209 12.7521L7.64055 12.1132C5.8535 11.0689 3.55878 11.6703 2.51278 13.4573C1.46848 15.2444 2.06985 17.5391 3.8569 18.5851C5.64396 19.6311 7.93868 19.028 8.98468 17.241C9.138 16.9786 9.25895 16.6992 9.34413 16.4062L8.40716 16.4216C7.81773 17.8883 6.14992 18.6004 4.68144 18.0093Z" fill="black"/>
<path d="M20.9693 12.7674C20.2658 12.0263 19.2896 11.6055 18.2675 11.6004C18.0613 11.6004 17.8552 11.6175 17.6525 11.6515L18.0749 12.5033C18.138 12.5033 18.2027 12.5033 18.2675 12.5033C19.8535 12.5153 21.1278 13.81 21.1158 15.396C21.1039 16.982 19.8092 18.2563 18.2232 18.2444C16.6371 18.2325 15.3629 16.9378 15.3748 15.3517C15.3799 14.6601 15.6354 13.9923 16.0937 13.4744L15.6712 12.6311C14.1703 14.057 14.109 16.4284 15.5349 17.9292C16.9608 19.4301 19.3322 19.4914 20.833 18.0655C22.3339 16.6396 22.3952 14.2682 20.9693 12.7674Z" fill="black"/>
<path d="M15.8518 11.1456L16.0716 11.9275L16.0682 11.9292C16.075 11.9565 16.0852 11.982 16.0971 12.0059L16.1006 12.0127C16.1023 12.0178 16.104 12.0229 16.1057 12.028L17.4787 14.7674V14.764L17.8706 15.5459C17.9932 15.7589 18.2658 15.8304 18.4788 15.7078C18.673 15.5953 18.753 15.3551 18.6644 15.149L16.9098 11.6481H16.908L16.3987 9.86449L16.2402 9.30742C16.1925 9.13877 16.2675 8.95989 16.4225 8.87812C16.5997 8.78442 16.8212 8.85086 16.9149 9.02974C16.9268 9.05188 16.937 9.07573 16.9438 9.09958L17.2556 10.2001C17.3288 10.3568 17.4856 10.4573 17.6593 10.4573H19.3357C19.5043 10.4573 19.6593 10.3602 19.7326 10.2086L20.6917 8.24779C20.799 8.02633 20.707 7.76057 20.4873 7.65324C20.414 7.61747 20.3305 7.60214 20.2488 7.61065L18.6201 7.78101L16.719 7.97352L16.4753 7.10128C16.2522 6.33978 15.4822 5.87471 14.7036 6.02973L14.2351 6.12684C14.0051 6.16943 13.8467 6.37897 13.8655 6.61236C13.891 6.85597 14.1074 7.03314 14.351 7.00759C14.3663 7.00588 14.3816 7.00418 14.397 7.00077L14.8859 6.89856C15.2096 6.83212 15.5299 7.02462 15.6218 7.34149L15.8808 8.21713C15.5622 8.44541 15.3714 8.81168 15.3697 9.2035C15.3714 9.37897 15.3919 9.55444 15.431 9.7248L10.7445 13.5953L8.80582 8.48459C9.06647 8.41304 9.33223 8.37045 9.6014 8.35342L9.86545 8.33297C10.1074 8.3449 10.3118 8.15921 10.3254 7.9173C10.3373 7.67539 10.1517 7.47096 9.90974 7.45733C9.88078 7.45563 9.85353 7.45733 9.82456 7.46074H8.52814C7.57754 7.46074 7.4157 7.44541 6.86885 7.44541C6.54517 7.44541 6.34415 7.56125 6.34415 7.80486C6.34415 8.31594 7.01025 8.7759 7.63887 8.7759C7.74449 8.7742 7.84841 8.76398 7.95063 8.74183L9.07158 11.6992L5.44977 15.0314C5.26919 15.1967 5.25556 15.4761 5.42081 15.6567C5.50429 15.747 5.62013 15.7998 5.74449 15.8015H5.75642L10.0154 15.735C9.983 15.8458 9.96767 15.9599 9.96767 16.0757C9.96767 16.7606 10.5213 17.3159 11.2079 17.3159C11.8927 17.3159 12.4481 16.7606 12.4481 16.0757V16.074C12.4481 15.8815 12.4021 15.6907 12.3152 15.5187L15.8518 11.1456ZM6.90804 14.8918L9.414 12.5885L9.92508 13.9616L10.2658 14.8406L6.90804 14.8918ZM11.2096 16.5102C11.2079 16.5102 11.2079 16.5102 11.2062 16.5102C10.9609 16.5102 10.7615 16.3108 10.7615 16.0655C10.7615 15.8202 10.9609 15.6209 11.2062 15.6209C11.4515 15.6209 11.6508 15.8202 11.6508 16.0655C11.6508 16.3091 11.4549 16.5085 11.2096 16.5102Z" fill="black"/>
</svg>

<svg xmlns="http://www.w3.org/2000/svg" width="24" height="24" fill="none" viewBox="0 0 24 24">
 <path fill="#000" d="M4.681 18.01a2.86 2.86 0 0 1-1.587-3.725 2.86 2.86 0 0 1 3.848-1.533l.699-.639a3.75 3.75 0 1 0 1.703 4.293l-.937.016a2.863 2.863 0 0 1-3.726 1.587M20.97 12.767a3.75 3.75 0 0 0-2.703-1.167q-.31 0-.614.052l.422.851h.192a2.87 2.87 0 1 1-.044 5.741 2.87 2.87 0 0 1-2.13-4.77l-.422-.843a3.747 3.747 0 1 0 5.162 5.435 3.747 3.747 0 0 0 .136-5.299"/>
 <path fill="#000" d="m15.852 11.146.22.781-.004.002a.4.4 0 0 0 .03.077l.003.007.005.015 1.373 2.74v-.004l.392.782a.445.445 0 0 0 .793-.397l-1.754-3.5h-.002l-.51-1.785-.158-.557a.37.37 0 0 1 .183-.429.364.364 0 0 1 .52.222l.313 1.1c.073.157.23.257.403.257h1.677a.44.44 0 0 0 .397-.248l.959-1.961a.445.445 0 0 0-.443-.637l-1.629.17-1.901.193-.244-.873a1.534 1.534 0 0 0-1.771-1.071l-.469.097a.455.455 0 0 0-.37.485c.026.244.242.421.486.396L14.397 7l.489-.102a.633.633 0 0 1 .736.442l.259.876a1.22 1.22 0 0 0-.511.986q.002.265.061.522l-4.686 3.87-1.94-5.11q.392-.107.796-.132l.264-.02a.44.44 0 1 0-.04-.872H8.528c-.95 0-1.112-.016-1.66-.016-.323 0-.524.116-.524.36 0 .51.666.97 1.295.97q.158 0 .312-.033l1.12 2.957-3.621 3.332a.442.442 0 0 0 .294.77h.012l4.26-.066a1.24 1.24 0 1 0 2.433.34v-.001c0-.193-.047-.383-.134-.555zm-8.944 3.746 2.506-2.303.511 1.373.34.879zm4.302 1.618h-.004a.445.445 0 1 1 .004 0"/>
</svg>
